X: 03045
T: JIG ON THE MOUNTAIN
C: Bob McQuillen 15 May 77
B: Bob's Note Book 03 #45
R: jig
%D:1977
Z: 2020 John Chambers <jc:trillian.mit.edu>
M: 6/8
L: 1/8
K: A
e \
| cec AcB | AFA ECE | AGA Bcd | ecA B2e |\
| cec AcB | AFA ECE | AcA Bed | cAA A2 :|
|: e \
| efe edc | ded dcd | ecA ecA | B>cB B2e |\
| efe edc | ded dcd | ecA ecA | B>cB A2 :|
%%begintext align
%% On this date, yours truly, April Limber, "Applejack", and
%% an assorted group of other idiots, 29 in all, climbed
%% Mt. Monadnock and held a contra dance on the very top
%% of the mountain, much to the astonishment of the many other
%% climbers gathered there on
%% this beautiful day.
%%endtext

%%sep 1 1 500

%%sep 1 1 500

